public/images/loginVk.svg

<svg width="40" height="40" viewBox="0 0 40 40" fill="none" xmlns="http://www.w3.org/2000/svg">
<path d="M21.6659 28.2353C13.0933 28.2353 8.20375 22.1409 8 12H12.2942C12.4352 19.4432 15.6008 22.596 18.1084 23.246V12H22.1519V18.4194C24.6281 18.1431 27.2293 15.2178 28.107 12H32.1504C31.4765 15.9654 28.6556 18.8906 26.6496 20.0933C28.6556 21.0684 31.8685 23.6198 33.0909 28.2353H28.6399C27.6839 25.1475 25.302 22.7585 22.1519 22.4335V28.2353H21.6659Z" fill="#EAE0FF"/>
<rect x="0.5" y="0.5" width="39" height="39" rx="7.5" stroke="#EAE0FF"/>
</svg>

<svg width="40" height="40" fill="none" xmlns="http://www.w3.org/2000/svg"><path d="M21.666 28.235C13.093 28.235 8.204 22.141 8 12h4.294c.141 7.443 3.307 10.596 5.814 11.246V12h4.044v6.42c2.476-.277 5.077-3.202 5.955-6.42h4.043c-.673 3.965-3.494 6.89-5.5 8.093 2.006.975 5.219 3.527 6.44 8.142h-4.45c-.956-3.087-3.338-5.476-6.488-5.802v5.802h-.486Z" fill="#EAE0FF"/><rect x=".5" y=".5" width="39" height="39" rx="7.5" stroke="#EAE0FF"/></svg>
